X:1
T:Title
%%score { ( 1 4 ) | ( 2 3 ) }
L:1/8
Q:1/4=93
M:6/8
K:F
V:1 treble nm="Grand Piano"
V:4 treble 
V:2 bass 
V:3 bass 
V:1
 A>AA A_A=A | [Gc]3 [Gc]3 | [B,FB]>[B,FB][B,FB] [B,FB][Fc][FB] | [EA]6 | A>AA A[^Fd][DFc] | %5
w: H.~W.~Porter * * * * *|||||
 [DGc]3 [DG=B]3 | [CGc][CEc][CEc] [DFc][DF=B]>[CEc] |[M:5/8] [CEc]-[CEc]- [CEc]3 |[M:1/8] z | %9
w: ||||
[M:3/4] d6 | A6 | A>A AA FG | [CA]6 | [Ec]>[EG] [EG][EG] [_E^F][=EG] | A3 c2 c | %15
w: ||||||
 [F=B]>[FB] [FB]B AB | [Ec]4- [Ec]c/c/ | d3 c z c/c/ | d3 c z [CFA]/[CFA]/ | B3 d3 | c4 z c | %21
w: ||||||
 d3 e2 d | c3 A2 F | [DFB]3 [CEA]2 [B,EG] | [A,F]6 |] %25
w: ||||
V:2
 [F,CF]>[F,CF][F,CF] [F,CF][F,=B,F][F,CF] | [E,C]3 G,2 A, | D,>D,D, D,[D,F,][D,G,] | [^C,A,]6 | %4
 [D,^F,D]>[D,F,D][D,F,D] [D,F,D][D,A,]D, | G,3 G,2 F, | E,A,A, G,G,>C, |[M:5/8] C,-C,- C,3 | %8
[M:1/8][K:treble] c |[M:3/4][K:bass] F,,2 [C,F,A,] .[C,F,A,]3 | F,,2 [C,F,A,C] [C,F,A,C]2 [F,A,C] | %11
 [F,A,C]>[F,A,C] [^C,F,A,^C][D,F,B,D] [D,F,B,D][C,F,B,C] | [F,,F,]2 C, C,2 [F,A,] | %13
 [C,G,]>[C,C] [C,C][C,C] [C,C][C,C] | [F,CF]3 [F,A,F]2 [F,A,F] | %15
 [D,G,]>[D,G,] [D,G,][K:treble][G,DF] [G,DF][G,DF] | [C,C]4- [C,C][G,B,E]/[G,B,E]/ | %17
 [F,A,F]3 [F,A,F] z [F,A,F]/[F,A,F]/ | [F,B,F]3 [F,A,F] z _E,/E,/ | D,3 B,,3 | [F,A,F]4 z [F,A,F] | %21
 [B,F]3 [B,F]2 [B,F] | [A,CF]3[K:bass] [F,CF]2 [D,D] | G,,3 C,2 C, | F,6 |] %25
V:3
 x6 | z3 E,3 | x6 | x6 | x6 | x6 | x6 |[M:5/8] x5 |[M:1/8][K:treble] x |[M:3/4][K:bass] x6 | x6 | %11
 x6 | x6 | x6 | x6 | x3[K:treble] x3 | x6 | x6 | x6 | x6 | x6 | x6 | x3[K:bass] x3 | x6 | x6 |] %25
V:4
 x6 | x6 | x6 | z3 z2 G, | x6 | x6 | x6 |[M:5/8] x5 |[M:1/8] x |[M:3/4] z2 [FA] [FA]2 c | %10
 z2 F F2 A | x6 | A,2 [F,A,]3 [Fc] | x6 | x6 | x6 | x6 | x6 | x6 | [B,F]6 | x6 | x6 | x6 | x6 | %24
 x6 |] %25

